src/imagens/footer/iconeLinkedin.svg

<svg width="101" height="114" viewBox="0 0 101 114" fill="none" xmlns="http://www.w3.org/2000/svg">
<g filter="url(#filter0_i_112_789)">
<path d="M98.3319 26.605L51.5296 1.00599C50.5187 0.453067 49.2942 0.460295 48.2899 1.02511L2.41535 26.8247C1.36118 27.4175 0.709909 28.534 0.712736 29.7434L0.840184 84.271C0.843011 85.4804 1.49949 86.5938 2.55642 87.1817L48.551 112.767C49.558 113.327 50.7825 113.328 51.7908 112.771L98.473 86.953C99.5388 86.3636 100.199 85.2407 100.196 84.0227L100.069 29.5272C100.066 28.3093 99.4005 27.1894 98.3319 26.605Z" fill="#151515"/>
</g>
<path d="M43.2518 78.9728C43.2518 78.7586 43.2518 78.5534 43.2518 78.3481C43.2518 68.7365 43.2518 59.1338 43.2518 49.5222C43.2518 49.2545 43.234 49.0403 43.6267 49.0403C46.4646 49.0582 49.3115 49.0492 52.1495 49.0492C52.2209 49.0492 52.2923 49.0671 52.4083 49.0849C52.4083 50.3344 52.4083 51.5659 52.4083 52.8064C52.444 52.8153 52.4708 52.8332 52.5065 52.8421C52.8634 52.3781 53.2026 51.8961 53.5774 51.441C54.6662 50.1023 56.0316 49.1206 57.638 48.5316C58.5126 48.2104 59.4675 48.014 60.3867 47.9694C61.654 47.9158 62.948 47.9337 64.1974 48.1479C66.2501 48.4959 68.0617 49.4062 69.561 50.8966C70.98 52.2977 71.9171 53.9844 72.4257 55.8853C72.6935 56.8938 72.863 57.929 73.0237 58.9553C73.1308 59.6693 73.1843 60.4011 73.1843 61.1151C73.1932 66.9159 73.1932 72.7168 73.1932 78.5177C73.1932 78.6604 73.1843 78.8032 73.1754 78.9907C73.0058 78.9907 72.863 78.9907 72.7203 78.9907C69.9805 78.9907 67.2496 78.9817 64.5098 78.9996C64.0546 78.9996 63.9743 78.8479 63.9743 78.4373C63.9832 73.1005 64.0011 67.7548 63.9654 62.418C63.9565 61.481 63.8672 60.5082 63.6263 59.6068C63.189 58.0272 62.1894 56.8849 60.6009 56.3048C59.2622 55.814 57.9057 55.7247 56.5314 56.0728C55.0142 56.4565 53.9701 57.465 53.1847 58.7947C52.5778 59.821 52.4618 60.9544 52.4529 62.0878C52.4172 67.5049 52.4351 72.9131 52.4351 78.3302C52.4351 78.5355 52.4351 78.7408 52.4351 78.9639C49.3561 78.9728 46.3308 78.9728 43.2518 78.9728Z" fill="#00FFC2"/>
<path d="M37.5046 64.1495C37.5046 68.9062 37.4957 73.6629 37.5136 78.4196C37.5136 78.848 37.4243 79.0087 36.9513 78.9997C34.2294 78.973 31.5074 78.973 28.7855 78.9997C28.3393 78.9997 28.2411 78.848 28.2411 78.4375C28.25 68.8795 28.25 59.3125 28.2411 49.7544C28.2411 49.3707 28.3482 49.2368 28.7409 49.2368C31.4896 49.2547 34.2383 49.2547 36.9959 49.2368C37.4243 49.2368 37.5046 49.3975 37.5046 49.7812C37.5046 54.5736 37.5046 59.366 37.5046 64.1495Z" fill="#00FFC2"/>
<path d="M32.7746 34.0027C35.7107 33.9314 37.4688 36.0643 37.4778 38.6791C37.4867 41.3565 35.6126 43.3555 32.6675 43.3466C29.9277 43.3466 27.9911 41.3832 28 38.6077C28.009 36.0107 29.892 33.9135 32.7746 34.0027Z" fill="#00FFC2"/>
<defs>
<filter id="filter0_i_112_789" x="0.712769" y="0.596436" width="101.153" height="114.261" filterUnits="userSpaceOnUse" color-interpolation-filters="sRGB">
<feFlood flood-opacity="0" result="BackgroundImageFix"/>
<feBlend mode="normal" in="SourceGraphic" in2="BackgroundImageFix" result="shape"/>
<feColorMatrix in="SourceAlpha" type="matrix" values="0 0 0 0 0 0 0 0 0 0 0 0 0 0 0 0 0 0 127 0" result="hardAlpha"/>
<feOffset dx="1.66986" dy="1.66986"/>
<feGaussianBlur stdDeviation="2.50479"/>
<feComposite in2="hardAlpha" operator="arithmetic" k2="-1" k3="1"/>
<feColorMatrix type="matrix" values="0 0 0 0 0 0 0 0 0 0 0 0 0 0 0 0 0 0 0.25 0"/>
<feBlend mode="normal" in2="shape" result="effect1_innerShadow_112_789"/>
</filter>
</defs>
</svg>

<svg xmlns="http://www.w3.org/2000/svg" width="101" height="114" fill="none"><g filter="url(#a)"><path fill="#151515" d="M98.332 26.605 51.53 1.006a3.34 3.34 0 0 0-3.24.02L2.415 26.824a3.34 3.34 0 0 0-1.702 2.918L.84 84.271a3.34 3.34 0 0 0 1.716 2.91l45.995 25.586a3.342 3.342 0 0 0 3.24.004l46.682-25.818a3.339 3.339 0 0 0 1.723-2.93l-.127-54.496a3.34 3.34 0 0 0-1.737-2.922Z"/></g><path fill="#00FFC2" d="M43.252 78.973V49.522c0-.267-.018-.482.375-.482 2.838.018 5.684.01 8.523.01.07 0 .142.017.258.035v3.721c.036.01.063.027.099.036.356-.464.696-.946 1.07-1.401a9.302 9.302 0 0 1 4.061-2.91 9.426 9.426 0 0 1 2.749-.562c1.267-.053 2.561-.035 3.81.179 2.053.348 3.865 1.258 5.364 2.749 1.419 1.4 2.356 3.087 2.865 4.988.267 1.009.437 2.044.598 3.07.107.714.16 1.446.16 2.16.01 5.8.01 11.602.01 17.403 0 .142-.01.285-.019.473h-.455c-2.74 0-5.47-.01-8.21.009-.455 0-.536-.152-.536-.563.01-5.337.027-10.682-.009-16.019-.009-.937-.098-1.91-.339-2.811-.437-1.58-1.437-2.722-3.025-3.302-1.339-.491-2.695-.58-4.07-.232-1.517.383-2.56 1.392-3.346 2.722-.607 1.026-.723 2.16-.732 3.293-.036 5.417-.018 10.825-.018 16.242v.634c-3.079.009-6.104.009-9.183.009ZM37.505 64.15c0 4.756-.01 9.513.009 14.27 0 .428-.09.589-.563.58a416.242 416.242 0 0 0-8.166 0c-.446 0-.544-.152-.544-.563.009-9.558.009-19.124 0-28.683 0-.383.107-.517.5-.517 2.749.018 5.497.018 8.255 0 .428 0 .509.16.509.544V64.15ZM32.775 34.003c2.936-.072 4.694 2.061 4.703 4.676.009 2.677-1.865 4.676-4.81 4.668-2.74 0-4.677-1.964-4.668-4.74.009-2.596 1.892-4.694 4.775-4.604Z"/><defs><filter id="a" width="101.153" height="114.261" x=".713" y=".596" color-interpolation-filters="sRGB" filterUnits="userSpaceOnUse"><feFlood flood-opacity="0" result="BackgroundImageFix"/><feBlend in="SourceGraphic" in2="BackgroundImageFix" result="shape"/><feColorMatrix in="SourceAlpha" result="hardAlpha" values="0 0 0 0 0 0 0 0 0 0 0 0 0 0 0 0 0 0 127 0"/><feOffset dx="1.67" dy="1.67"/><feGaussianBlur stdDeviation="2.505"/><feComposite in2="hardAlpha" k2="-1" k3="1" operator="arithmetic"/><feColorMatrix values="0 0 0 0 0 0 0 0 0 0 0 0 0 0 0 0 0 0 0.25 0"/><feBlend in2="shape" result="effect1_innerShadow_112_789"/></filter></defs></svg>
